X: 232
T: Sally in the Garden [1]
B: canberra pickers and fiddlers
B: tunes
M:4/4
L:1/8
Q: 1/4=160
K:Am
V:1 
"Am"ABAG EGAB|[G4c4] [G4B4]|"Am"ABAG E2^F2|"G"G2B2 G2B2|!
"Am"ABAG EGAB|c2 d2 e4|e3f edB2|"G"c3d "Em"cAG2|1"Am"A4-A2AA:|2"Am"A4-A2AB|]!
|:"Am"cBAB cBAB|c2 d2 e2 AB|cBAB c2 d2|"E"ecBc "Am"A2AB|!
"Am"cBAB cBAB|c2d2 e4|e3f edB2|"G"c2cd "Am"cAG2|1"Am"A4-A2AB:|2"Am"A8|]
% abcbook-tune_id 63ae8f1c17771784f6e2ee9d
% abcbook-tune_composer_id 
% abcbook-link-0 https://www.youtube.com/watch?v=1W9vzn7Xqeo
% abcbook-boost 0
% abcbook-difficulty 0
% abcbook-tags canberra pickers and fiddlers,old time tunes,steve ryan,© free
% abcbook-tablature 
% abcbook-transpose 
% abcbook-tuning GDAE
% abcbook-lastupdated 1675315029842
% abcbook-src-url https://tunebook.net/scrape/tunes.abc
% abcbook-soundfonts 
% abcbook-repeats 1


